app/dist/common/images/archer-aviation.svg

<svg height="18" viewBox="0 0 18 18" width="18" xmlns="http://www.w3.org/2000/svg"><path d="m0 0h18v18h-18z" fill="#f0f3fa"/><path d="m5 13h-1v-2.4c0-3.5 2.67-6.54 4-7.6h1.99c1.33 1.07 4.01 4.1 4.01 7.6v2.4h-1v-2.17a11.63 11.63 0 0 0 -2-5.46v7.62l-1 1.01v-9.7a5.31 5.31 0 0 0 -.5-.38v10.55l-.47.53-.53-.53v-10.56l-.5.37v9.6l-1-.99v-7.54a11.65 11.65 0 0 0 -2 5.48z"/></svg>

<!-- by TradingView --><svg xmlns="http://www.w3.org/2000/svg" width="18" height="18" viewBox="0 0 18 18"><path fill="#F0F3FA" d="M0 0h18v18H0z"/><path d="M5 13H4v-2.4C4 7.1 6.67 4.06 8 3h1.99C11.32 4.07 14 7.1 14 10.6V13h-1v-2.17a11.63 11.63 0 0 0-2-5.46v7.62L10 14V4.3a5.31 5.31 0 0 0-.5-.38v10.55l-.47.53-.53-.53V3.91l-.5.37v9.6l-1-.99V5.35a11.65 11.65 0 0 0-2 5.48V13z"/></svg>
